packages/components/Atoms/Icon/assets/img/rpl_icon_user.svg

<svg width="12" height="12" viewBox="0 0 12 12" overflow="visible" xmlns="http://www.w3.org/2000/svg">
  <path d="M6 0C9.30818 0 12 2.69182 12 6C12 9.30818 9.30818 12 6 12C2.69127 12 0 9.30818 0 6C0 2.69182 2.69127 0 6 0ZM7.2 6H6.97657C6.67943 6.13657 6.34857 6.21429 6 6.21429C5.652 6.21429 5.32229 6.13657 5.024 6H4.8C3.80686 6 3 6.80629 3 7.8V8.35714C3 8.712 3.288 9 3.64286 9H8.35714C8.712 9 9 8.712 9 8.35714V7.8C9 6.80629 8.19371 6 7.2 6ZM6 5.5C6.96717 5.5 7.75 4.71658 7.75 3.75C7.75 2.78342 6.96717 2 6 2C5.03342 2 4.25 2.78342 4.25 3.75C4.25 4.71658 5.03342 5.5 6 5.5Z"
    fill="inherit" />
</svg>

<svg width="12" height="12" overflow="visible" xmlns="http://www.w3.org/2000/svg"><path d="M6 0c3.308 0 6 2.692 6 6s-2.692 6-6 6c-3.309 0-6-2.692-6-6s2.691-6 6-6zm1.2 6h-.223a2.334 2.334 0 01-1.953 0H4.8A1.8 1.8 0 003 7.8v.557c0 .355.288.643.643.643h4.714A.643.643 0 009 8.357V7.8A1.8 1.8 0 007.2 6zM6 5.5a1.75 1.75 0 10.001-3.499A1.75 1.75 0 006 5.5z" fill="inherit"/></svg>
